!!!ONB: MCCC : ILB0167_02 : Extracted Monophonic Melody
!!!COM: Beethoven, Ludwig van
!!!OPR: Piano Sonata No.6
!!!OMV: 2
!!!SCT: Op.10 No.2
!!!ODT: 1796///
**kern
*thru
*staff1
*Ipiano
*>A
*clefF4
*k[b-e-a-d-]
*f:
*M3/4
*MM160
4C
=1
4F
4A-
4E
=2
4F
4A-
4c
=3
4d-
4B-
4e
=4
4f
4c
4g
=5
4a-
4f
4b-
=6
2cc
4dd-
=7
2cc
4b-
=8
4a-
4r
*>A
*M3/4
4C
=9
4F
4A-
4E
=10
4F
4A-
4c
=11
4d-
4B-
4e
=12
4f
4c
4g
=13
4a-
4f
4b-
=14
2cc
4dd-
=15
2cc
4b-
=16
4a-
4r
*>B
4cc
=17
4cc
8dd-
8cc
4dd-
=18
4dd-
8g
8f
4dd-
=19
4dd-
8ee-
8dd-
4ee-
=20
4ee-
8a
8g
4ee-
=21
4ee-
8ff
8ee-
4ff
=22
2ff
4ff
=23
2ff
4gg
=24
2cc
4cc
=25
4ff
4aa-
4ee
=26
4ff
4aa-
4ccc
=27
4ddd-
4bb-
4eee
=28
4fff
4ccc
4aa-
=29
4bb-
4ddd-
4gg
=30
2aa-
4aa-
=31
2aa-
4gg
=32
2aa-
4gg
=33
4ff
4gg
4ee
=34
4ff
4cc
4a-
=35
2a-
4g
=36
2a-
4g
=37
4f
4g
4e
=38
4f
4r
4c
=39
2e
4f
=40
2g
4a-
=41
4.cc
8b-
8a-
8g
=42
8b-
8a-
8g
8f
4cc
=43
2gg
4aa-
=44
4bb-
2r
=45
4fff
4r
4r
=46
4r
4r
*>B
4cc
=47
4cc
8dd-
8cc
4dd-
=48
4dd-
8g
8f
4dd-
=49
4dd-
8ee-
8dd-
4ee-
=50
4ee-
8a
8g
4ee-
=51
4ee-
8ff
8ee-
4ff
=52
2ff
4ff
=53
2ff
4gg
=54
2cc
4cc
=55
4ff
4aa-
4ee
=56
4ff
4aa-
4ccc
=57
4ddd-
4bb-
4eee
=58
4fff
4ccc
4aa-
=59
4bb-
4ddd-
4gg
=60
2aa-
4aa-
=61
2aa-
4gg
=62
2aa-
4gg
=63
4ff
4gg
4ee
=64
4ff
4cc
4a-
=65
2a-
4g
=66
2a-
4g
=67
4f
4g
4e
=68
4f
4r
4c
=69
2e
4f
=70
2g
4a-
=71
4.cc
8b-
8a-
8g
=72
8b-
8a-
8g
8f
4cc
=73
2gg
4aa-
=74
4bb-
2r
=75
4fff
4r
4r
=76
4r
4r
*>C
*k[b-e-a-d-g-]
4f
=77
2f
4f
=78
2f
4f
=79
2.f
=80
2e-
8e-
8f
=81
2g-
4g-
=82
2g-
4g-
=83
2.g-
=84
4f
4r
8f
8g
=85
2a-
4a-
=86
2a-
4a-
=87
2.dd-[
=88
2dd-]
4cc
=89
4cc
4b-
4a-
=90
2a-
4g
=91
2.b-
=92
4a-
4r
4f
=93
2f
4f
=94
2f
4f
=95
2.f
=96
4e-
4r
8e-
8f
=97
2g-
4g-
=98
2g-
4g-
=99
2.g-
=100
4f
4r
8g
8a-
=101
2b-
4b-
=102
2b-
4b-
=103
[2.b-
=104
4b-]
4r
4a-
=105
4f
4r
4f
=106
4e-
4r
4e-
=107
4A-
4r
4r
=108
2.r
=109
2.r
=110
2.r
=111
4r
4r
4fff[
=112
8fff]
8eee-
8ddd
8ccc-
8bb-
8aa-
=113
4gg-
4r
4r
=114
2.r
=115
4r
4r
4eee-[
=116
8eee-]
8ddd-
8ccc
8bb-
8aa-
8gg-
=117
2ff
4ff
=118
2ff
4ff
=119
[2.ff
=120
4ff]
4r
8ee-
8ff
=121
2gg-
4gg-
=122
2gg-
4gg-
=123
2.gg-
=124
4ff
4r
4r
=125
2b-
4b-
=126
2b-
4b-
=127
2.b-
=128
4a-
4r
4r
=129
2a-
4a-
=130
2a-
4a-
=131
4d-
4r
4r
=132
2.r
=133
2.r
=134
2.r
=135
4r
4r
4fff[
=136
8fff]
8eee-
8ddd
8ccc-
8bb-
8aa-
=137
4gg-
4r
4r
=138
2.r
=139
4r
4r
4eee-[
=140
8eee-]
8ddd-
8ccc
8bb-
8aa-
8gg-
=141
2ff
4ff
=142
2ff
4ff
=143
[2.ff
=144
4ff]
4r
8ee-
8ff
=145
2gg-
4gg-
=146
2gg-
4gg-
=147
2.gg-
=148
4ff
4r
4r
=149
2b-
4b-
=150
2b-
4b-
=151
2.b-
=152
2.b--
=153
2a-
4a-
=154
2a-
4a-
=155
4d-
4r
4r
=156
2.r
=157
2d-
4d-
=158
2d-
4d-
=159
2.c[
=160
2.c]
=161
2e
4e
=162
2e
4e
=163
*k[b-e-a-d-]
4f
4A-
4E
=164
4F
4A-
4c
=165
4d-
4B-
4e
=166
4f
4c
4g
=167
4a-
4f
4b-
=168
2cc
4dd-
=169
2cc
4b-
=170
4a-
4r
8r
8C[
=171
8C]
4F
4A-
8E[
=172
8E]
4F
4A-
8c[
=173
8c]
4d-
4B-
8e[
=174
8e]
4f
4c
8g[
=175
8g]
4a-
4f
8b-
=176
4.cc
8cc
8ee-
8dd-
=177
4.cc
8dd-
8b-
8cc
=178
4a-
4r
4cc
=179
4cc
8b
8cc
4dd-
=180
4dd-
8e
8f
4dd-
=181
4dd-
8cc
8dd-
4ee-
=182
4ee-
8f
8g
4ee-
=183
4ee-
8dd
8ee-
4ff
=184
4ff
8g
8a
4ff
=185
2ff
4gg
=186
2cc
4cc
=187
4ff
4aa-
4ee[
=188
8ee]
4ff
4aa-
8ccc[
=189
8ccc]
4ddd-
4bb-
8eee[
=190
8eee]
4fff
4ccc
8aa-[
=191
8aa-]
4bb-
4ddd-
8gg[
=192
8gg]
4aa-
4aa-
8aa-
=193
2aa-
4gg
=194
2aa-
4gg
=195
4ff
4gg
4ee
=196
8ff
8ee-
8dd-
8cc
8b-
8a-
=197
2a-
4g
=198
2a-
4g
=199
4f
4g
4e
=200
4f
4r
4c
=201
2e
4f
=202
2g
4a-
=203
4.cc
8b-
8a-
8g
=204
8b-
8a-
8g
8f
4cc
=205
2gg
4aa-
=206
4bb-
8b
8cc
4eee
=207
4fff
4r
4r
=208
2.r
==
*-
